Papirus/64x64/apps/kmouth.svg

<?xml version="1.0" encoding="UTF-8" standalone="no"?>
<svg xmlns="http://www.w3.org/2000/svg" height="64" width="64" version="1">
 <path style="opacity:0.2" d="m 4.050798,32.000828 c -0.0118,0.33399 -0.050799,0.661981 -0.050799,0.999971 C 3.9999994,48.512357 16.487643,61 31.9992,61 47.510757,61 59.998401,48.512357 59.998401,33.000799 c 0,-0.33767 -0.03904,-0.665261 -0.05078,-0.999971 -0.527985,15.041571 -12.775635,26.999229 -27.949202,26.999229 -15.173967,0 -27.4212171,-11.957658 -27.949202,-26.999229 z"/>
 <rect style="fill:#fe4d38" ry="27.999" rx="27.999" transform="matrix(0,-1,-1,0,0,0)" height="55.998" width="55.998" y="-60" x="-60"/>
 <path style="opacity:0.1;fill:#ffffff" d="M 32 4.0019531 C 16.488443 4.0019531 4 16.488443 4 32 C 4 32.113553 4.0112846 32.224036 4.0175781 32.335938 C 4.3691113 17.134615 16.711164 5 32 5 C 47.288836 5 59.630889 17.134615 59.982422 32.335938 C 59.988693 32.224116 60 32.113445 60 32 C 60 16.488443 47.511557 4.0019531 32 4.0019531 z"/>
 <path style="fill:#3f3f3f" d="m 16.554841,40.000628 c 3.187509,6.183024 9.076541,9.994115 15.451359,9.999715 6.370018,-0.0112 12.25245,-3.821491 15.437559,-9.999715 2.859118,-5.545842 -5.791635,-6.000029 -15.444559,-6.000029 -9.652924,0 -18.305477,0.450708 -15.444559,6.000029 z"/>
 <ellipse style="fill:#3f3f3f" rx="4" ry="5" cy="21.001" cx="21.999"/>
 <ellipse style="fill:#3f3f3f" rx="4" ry="5" cy="21.001" cx="41.999"/>
</svg>

<?xml version="1.0" encoding="UTF-8" standalone="no"?>
<svg xmlns="http://www.w3.org/2000/svg" height="64" width="64" version="1">
 <path style="opacity:.2" d="m4.0508 32.001c-.0118.33399-.050799.66198-.050799.99997 0 15.511 12.488 27.999 27.999 27.999 15.512 0 27.999-12.488 27.999-27.999 0-.33767-.03904-.66526-.05078-.99997-.52798 15.042-12.776 26.999-27.949 26.999-15.174 0-27.421-11.958-27.949-26.999z"/>
 <rect style="fill:#fe4d38" transform="matrix(0,-1,-1,0,0,0)" rx="27.999" ry="27.999" height="55.998" width="55.998" y="-60" x="-60"/>
 <path style="opacity:.2;fill:#ffffff" d="m32 4.002c-15.512 0-28 12.486-28 27.998 0 .114.0113.224.0176.336.3515-15.201 12.693-27.336 27.982-27.336s27.631 12.135 27.982 27.336c.007-.112.018-.223.018-.336 0-15.512-12.488-27.998-28-27.998z"/>
 <path style="fill:#3f3f3f" d="m16.555 40.001c3.1875 6.183 9.0765 9.9941 15.451 9.9997 6.37-.0112 12.252-3.8215 15.438-9.9997 2.8591-5.5458-5.7916-6-15.445-6-9.6529 0-18.305.45071-15.445 6z"/>
 <ellipse style="fill:#3f3f3f" rx="4" ry="5" cy="21.001" cx="21.999"/>
 <ellipse style="fill:#3f3f3f" rx="4" ry="5" cy="21.001" cx="41.999"/>
</svg>
